X:917
T:Road To Dundee, The
C:Joe Buchanan's Scottish Tome - Page 534.1
I:534 1
Z:Carl Allison
R:Waltz
L:1/4
Q:1/4=120
M:3/4
K:G
d | "G"d>c B | "G"B A "G7"D | "C"G>F "C"E | "G"D G B | "C"c>d "C"e | "G"d B G | "A"G>F "A7"G | "D"A2 d |
"G"d>c "G7"B | "G"B A "G7"D | "C"G>F "C"E | "G"D G "G"B | "C"c>d e | "G"d B "G"G | "D"c A "D7"F | "G"G3 :|

